X:1
T:Title
%%score { 1 | ( 2 3 4 ) }
L:1/8
Q:1/4=112
M:3/4
K:Ab
V:1 treble nm="Grand Piano"
V:2 bass 
V:3 bass 
V:4 bass 
V:1
 [Ec]2 A2 F2 | [A,CE]2 C2 D2 | [CE]4 [CA]2 | [Ec]6 | [Ge]2 [GB]2 [Ac]2 | [Bd]6 | [Fd]2 c2 _c2 | %7
w: Robert~Harkness * *|||||||
 [Ec]6 | [Ec]2 A2 F2 | [A,CE]2 C2 D2 | [CE]4 [CA]2 | [Ec]6 | [Ge]2 [GB]2 [Ac]2 | [Bd]6 | %14
w: |||||||
 [Fd]2 c2 G2 | [CA]6 | c2 c2 c2 | F2 G2 A2 | [=Ec]6 | C6 | F2 G2 A2 | c2 A2 c2 | [Ge]6 | E6 | %24
w: ||||||||||
 [Ec]2 [CA]2 [DF]2 | [CE]2 [A,C]2 [B,D]2 | [CE]4 A2 | c6 | [Ge]2 [GB]2 [Ac]2 | [Bd]6 | d2 c2 G2 | %31
w: |||||||
 [CA]6 |] %32
w: |
V:2
 z2 C2 C2 | z2 z2 B,2 | [A,,A,]6 | [A,,A,]6 | [E,B,]2 [E,E]2 [E,E]2 | [E,E]6 | z2 E2 =D2 | %7
 [A,,A,]6 | z2 C2 D2 | z2 z2 B,2 | [A,,A,]6 | [A,,A,]6 | [E,B,]2 [E,E]2 [E,E]2 | [E,E]6 | %14
 z2 E2 [E,B,D]2 | [A,,A,]6 | [F,A,F]2 [F,A,F]2 [F,A,F]2 | [F,A,]2 [F,B,F]2 [F,CF]2 | [C,C]6 | %19
 [C,=E,]6 | [F,A,C]2 [F,B,F]2 [F,CF]2 | [F,A,F]2 [F,CF]2 [F,A,F]2 | [E,B,]6 | [E,G,]6 | %24
 [A,,A,]2 [A,,A,]2 [A,,A,]2 | [A,,A,]2 [A,,E,]2 [A,,E,]2 | [A,,A,]4 [A,C]2 | [A,E]6 | %28
 [E,B,]2 [E,E]2 [E,E]2 | [E,E]6 | [E,G,E]2 [E,A,E]2 [E,B,D]2 | [A,,A,]6 |] %32
V:3
 [A,,A,]6 | z2 A,4 | x6 | x6 | x6 | x6 | A,6 | x6 | [A,,A,]6 | z2 A,4 | x6 | x6 | x6 | x6 | %14
 E,4 z2 | x6 | x6 | x6 | x6 | x6 | x6 | x6 | x6 | x6 | x6 | x6 | x6 | x6 | x6 | x6 | x6 | x6 |] %32
V:4
 x6 | A,,6 | x6 | x6 | x6 | x6 | x6 | x6 | x6 | A,,6 | x6 | x6 | x6 | x6 | x6 | x6 | x6 | x6 | x6 | %19
 x6 | x6 | x6 | x6 | x6 | x6 | x6 | x6 | x6 | x6 | x6 | x6 | x6 |] %32

